woo-category-slider-grid/admin/img/carousel-pagination-type/numbers.svg

<svg width="81" height="32" viewBox="0 0 80 32" fill="none" xmlns="http://www.w3.org/2000/svg">
<circle cx="12.5" cy="16" r="5" fill="#8796A1"/>
<path d="M13.6675 13.3125V19H12.3511V14.7969L11.0543 15.1758V14.1758L13.5464 13.3125H13.6675Z" fill="white"/>
<circle cx="26.5" cy="16" r="5" fill="#8796A1"/>
<path d="M28.7222 17.9844V19H24.7535V18.1406L26.5816 16.2188C26.7431 16.0339 26.8733 15.8685 26.9722 15.7227C27.0712 15.5742 27.1428 15.4401 27.1871 15.3203C27.2339 15.2005 27.2574 15.0924 27.2574 14.9961C27.2574 14.832 27.2326 14.6953 27.1832 14.5859C27.1363 14.474 27.066 14.3893 26.9722 14.332C26.8811 14.2747 26.7678 14.2461 26.6324 14.2461C26.497 14.2461 26.3785 14.2852 26.2769 14.3633C26.1753 14.4414 26.0959 14.5482 26.0386 14.6836C25.9839 14.819 25.9566 14.9714 25.9566 15.1406H24.6363C24.6363 14.7917 24.7209 14.4727 24.8902 14.1836C25.0621 13.8945 25.3003 13.6641 25.605 13.4922C25.9097 13.3177 26.2626 13.2305 26.6636 13.2305C27.0829 13.2305 27.4345 13.2956 27.7183 13.4258C28.0022 13.556 28.2157 13.7448 28.3589 13.9922C28.5048 14.237 28.5777 14.5326 28.5777 14.8789C28.5777 15.0768 28.5464 15.2669 28.4839 15.4492C28.4214 15.6315 28.3316 15.8125 28.2144 15.9922C28.0972 16.1693 27.954 16.3516 27.7847 16.5391C27.6181 16.7266 27.428 16.9258 27.2144 17.1367L26.48 17.9844H28.7222Z" fill="white"/>
<circle cx="40.5" cy="16" r="5" fill="#8796A1"/>
<path d="M39.9527 15.6055H40.5933C40.7574 15.6055 40.8915 15.5768 40.9957 15.5195C41.1024 15.4596 41.1819 15.3763 41.2339 15.2695C41.286 15.1602 41.3121 15.0312 41.3121 14.8828C41.3121 14.7682 41.2873 14.6628 41.2378 14.5664C41.191 14.4701 41.1181 14.3932 41.0191 14.3359C40.9201 14.276 40.7938 14.2461 40.6402 14.2461C40.536 14.2461 40.4345 14.2682 40.3355 14.3125C40.2365 14.3542 40.1545 14.4141 40.0894 14.4922C40.0269 14.5703 39.9957 14.6654 39.9957 14.7773H38.6753C38.6753 14.4544 38.7639 14.1784 38.941 13.9492C39.1207 13.7174 39.3563 13.5404 39.648 13.418C39.9423 13.293 40.2587 13.2305 40.5972 13.2305C41.0009 13.2305 41.355 13.293 41.6597 13.418C41.9644 13.5404 42.2014 13.7227 42.3707 13.9648C42.5425 14.2044 42.6285 14.5013 42.6285 14.8555C42.6285 15.0508 42.5829 15.2344 42.4918 15.4062C42.4006 15.5781 42.273 15.7292 42.1089 15.8594C41.9449 15.9896 41.7522 16.0924 41.5308 16.168C41.3121 16.2409 41.0725 16.2773 40.8121 16.2773H39.9527V15.6055ZM39.9527 16.5859V15.9297H40.8121C41.0959 15.9297 41.355 15.9622 41.5894 16.0273C41.8238 16.0898 42.0256 16.1836 42.1949 16.3086C42.3641 16.4336 42.4944 16.5885 42.5855 16.7734C42.6766 16.9557 42.7222 17.1654 42.7222 17.4023C42.7222 17.668 42.6688 17.9049 42.5621 18.1133C42.4553 18.3216 42.3056 18.4974 42.1128 18.6406C41.9201 18.7839 41.6949 18.8932 41.4371 18.9688C41.1793 19.0417 40.8993 19.0781 40.5972 19.0781C40.3602 19.0781 40.1233 19.0469 39.8863 18.9844C39.6493 18.9193 39.4332 18.8203 39.2378 18.6875C39.0425 18.5521 38.885 18.3802 38.7652 18.1719C38.648 17.9609 38.5894 17.7096 38.5894 17.418H39.9097C39.9097 17.5378 39.9423 17.6471 40.0074 17.7461C40.0751 17.8424 40.1649 17.9193 40.2769 17.9766C40.3889 18.0339 40.51 18.0625 40.6402 18.0625C40.8016 18.0625 40.9384 18.0326 41.0503 17.9727C41.1649 17.9102 41.2522 17.8268 41.3121 17.7227C41.372 17.6185 41.4019 17.5026 41.4019 17.375C41.4019 17.1823 41.3694 17.0286 41.3043 16.9141C41.2418 16.7995 41.1493 16.7161 41.0269 16.6641C40.9071 16.612 40.7626 16.5859 40.5933 16.5859H39.9527Z" fill="white"/>
<circle cx="54.5" cy="16" r="5" fill="#8796A1"/>
<path d="M56.8043 16.7773V17.793H52.7105L52.6324 16.9883L54.9175 13.3125H55.9566L54.8277 15.1602L53.8902 16.7773H56.8043ZM56.23 13.3125V19H54.9136V13.3125H56.23Z" fill="white"/>
<circle cx="68.5" cy="16" r="5" fill="#8796A1"/>
<path d="M67.8785 16.4648L66.8316 16.2188L67.1753 13.3125H70.4996V14.3359H68.2496L68.1207 15.4648C68.1832 15.4284 68.2886 15.3854 68.4371 15.3359C68.5881 15.2839 68.7548 15.2578 68.9371 15.2578C69.2183 15.2578 69.467 15.3008 69.6832 15.3867C69.9019 15.4701 70.0868 15.5938 70.2378 15.7578C70.3889 15.9193 70.5022 16.1185 70.5777 16.3555C70.6558 16.5924 70.6949 16.8633 70.6949 17.168C70.6949 17.4128 70.6545 17.6497 70.5738 17.8789C70.4957 18.1055 70.3746 18.3099 70.2105 18.4922C70.049 18.6719 69.8446 18.8151 69.5972 18.9219C69.3498 19.026 69.0569 19.0781 68.7183 19.0781C68.4657 19.0781 68.2196 19.0391 67.98 18.9609C67.7405 18.8828 67.5243 18.7708 67.3316 18.625C67.1415 18.4766 66.9905 18.2982 66.8785 18.0898C66.7691 17.8789 66.7157 17.6432 66.7183 17.3828H68.0425C68.0503 17.5208 68.0829 17.6406 68.1402 17.7422C68.1975 17.8438 68.2743 17.9232 68.3707 17.9805C68.4696 18.0352 68.5829 18.0625 68.7105 18.0625C68.8407 18.0625 68.9488 18.0365 69.0347 17.9844C69.1207 17.9323 69.1884 17.8607 69.2378 17.7695C69.2873 17.6784 69.3225 17.5742 69.3433 17.457C69.3641 17.3372 69.3746 17.2109 69.3746 17.0781C69.3746 16.9375 69.3589 16.8112 69.3277 16.6992C69.299 16.5872 69.2522 16.4922 69.1871 16.4141C69.122 16.3333 69.0373 16.2721 68.9332 16.2305C68.8316 16.1888 68.7092 16.168 68.566 16.168C68.3759 16.168 68.2261 16.2005 68.1168 16.2656C68.0074 16.3307 67.928 16.3971 67.8785 16.4648Z" fill="white"/>
<rect x="0.5" y="0.5" width="79" height="31" rx="1.5" stroke="#B6C0C6"/>
</svg>

<svg xmlns="http://www.w3.org/2000/svg" width="80" height="32" fill="none" xmlns:v="https://vecta.io/nano"><use href="#B" fill="#fff"/><use href="#B" stroke="#8796a1" stroke-width="1.2"/><circle cx="12.5" cy="16" r="5" fill="#58707f"/><path d="M13.668 13.313V19h-1.316v-4.203l-1.297.379v-1l2.492-.863h.121z" fill="#fff"/><circle cx="26.5" cy="16" r="5" fill="#58707f"/><path d="M28.722 17.984V19h-3.969v-.859l1.828-1.922c.161-.185.292-.35.391-.496a1.99 1.99 0 0 0 .215-.402c.047-.12.07-.228.07-.324 0-.164-.025-.301-.074-.41s-.117-.197-.211-.254-.204-.086-.34-.086-.254.039-.355.117-.181.185-.238.32a1.21 1.21 0 0 0-.082.457h-1.32a1.86 1.86 0 0 1 .254-.957 1.9 1.9 0 0 1 .715-.691c.305-.175.658-.262 1.059-.262.419 0 .771.065 1.055.195a1.38 1.38 0 0 1 .641.566c.146.245.219.54.219.887 0 .198-.031.388-.094.57a2.45 2.45 0 0 1-.269.543c-.117.177-.26.359-.43.547l-.57.598-.734.848h2.242z" fill="#fff"/><circle cx="40.5" cy="16" r="5" fill="#58707f"/><path d="M39.953 15.606h.641a.83.83 0 0 0 .402-.086c.107-.06.186-.143.238-.25a.89.89 0 0 0 .078-.387.68.68 0 0 0-.074-.316.53.53 0 0 0-.219-.23c-.099-.06-.225-.09-.379-.09a.74.74 0 0 0-.305.066c-.099.042-.181.102-.246.18s-.094.173-.094.285h-1.32c0-.323.089-.599.266-.828s.415-.409.707-.531.611-.187.949-.187c.404 0 .758.063 1.063.188s.542.305.711.547.258.537.258.891a1.16 1.16 0 0 1-.137.551c-.091.172-.219.323-.383.453s-.357.233-.578.309a2.26 2.26 0 0 1-.719.109h-.859v-.672zm0 .98v-.656h.859a2.9 2.9 0 0 1 .777.098 1.78 1.78 0 0 1 .605.281 1.27 1.27 0 0 1 .391.465 1.39 1.39 0 0 1 .137.629c0 .266-.053.503-.16.711s-.257.384-.449.527a2.12 2.12 0 0 1-.676.328c-.258.073-.538.109-.84.109-.237 0-.474-.031-.711-.094s-.453-.164-.648-.297-.353-.307-.473-.516-.176-.462-.176-.754h1.32c0 .12.033.229.098.328a.73.73 0 0 0 .27.231c.112.057.233.086.363.086a.86.86 0 0 0 .41-.09c.115-.062.202-.146.262-.25s.09-.22.09-.348c0-.193-.032-.346-.098-.461s-.155-.198-.277-.25-.264-.078-.434-.078h-.641z" fill="#fff"/><circle cx="54.5" cy="16" r="5" fill="#58707f"/><path d="M56.804 16.777v1.016h-4.094l-.078-.805 2.285-3.676h1.039l-1.129 1.848-.937 1.617h2.914zm-.574-3.465V19h-1.316v-5.687h1.316z" fill="#fff"/><circle cx="68.5" cy="16" r="5" fill="#58707f"/><path d="M67.879 16.465l-1.047-.246.344-2.906H70.5v1.023h-2.25l-.129 1.129c.063-.036.168-.079.316-.129s.318-.078.5-.078a2.01 2.01 0 0 1 .746.129c.219.083.404.207.555.371s.264.361.34.598.117.508.117.813c0 .245-.04.482-.121.711a1.77 1.77 0 0 1-.363.613c-.161.18-.366.323-.613.43s-.54.156-.879.156c-.253 0-.499-.039-.738-.117s-.456-.19-.648-.336-.341-.327-.453-.535a1.48 1.48 0 0 1-.16-.707h1.324c.008.138.04.258.098.359s.134.181.231.238a.69.69 0 0 0 .34.082c.13 0 .238-.026.324-.078s.154-.124.203-.215.085-.195.106-.312.031-.246.031-.379c0-.141-.016-.267-.047-.379s-.075-.207-.141-.285a.61.61 0 0 0-.254-.184c-.102-.042-.224-.062-.367-.062-.19 0-.34.033-.449.098s-.189.131-.238.199z" fill="#fff"/><defs ><path id="B" d="M3 .6h74A2.4 2.4 0 0 1 79.4 3v26a2.4 2.4 0 0 1-2.4 2.4H3A2.4 2.4 0 0 1 .6 29V3A2.4 2.4 0 0 1 3 .6z"/></defs></svg>
